server/website/public/icons/base/chat.svg

<svg width="48" height="48" viewBox="0 0 48 48" fill="none" xmlns="http://www.w3.org/2000/svg">
<g clip-path="url(#clip0_1321_13504)">
<path d="M4.8 38.384H9.6V48.1784L21.8424 38.384H33.6C36.2472 38.384 38.4 36.2312 38.4 33.584V14.384C38.4 11.7368 36.2472 9.58398 33.6 9.58398H4.8C2.1528 9.58398 0 11.7368 0 14.384V33.584C0 36.2312 2.1528 38.384 4.8 38.384Z" fill="black"/>
<path d="M43.1996 -0.015625H14.3996C11.7524 -0.015625 9.59961 2.13717 9.59961 4.78437H38.3996C41.0468 4.78437 43.1996 6.93717 43.1996 9.58437V28.7844C45.8468 28.7844 47.9996 26.6316 47.9996 23.9844V4.78437C47.9996 2.13717 45.8468 -0.015625 43.1996 -0.015625Z" fill="black"/>
</g>
<defs>
<clipPath id="clip0_1321_13504">
<rect width="48" height="48" fill="white"/>
</clipPath>
</defs>
</svg>

<svg width="48" height="48" fill="none" xmlns="http://www.w3.org/2000/svg"><g clip-path="url(#prefix__clip0_1321_13504)" fill="#000"><path d="M4.8 38.384h4.8v9.794l12.242-9.794H33.6c2.647 0 4.8-2.153 4.8-4.8v-19.2c0-2.647-2.153-4.8-4.8-4.8H4.8a4.805 4.805 0 00-4.8 4.8v19.2c0 2.647 2.153 4.8 4.8 4.8z"/><path d="M43.2-.016H14.4a4.805 4.805 0 00-4.8 4.8h28.8c2.647 0 4.8 2.153 4.8 4.8v19.2c2.647 0 4.8-2.152 4.8-4.8v-19.2c0-2.647-2.153-4.8-4.8-4.8z"/></g><defs><clipPath id="prefix__clip0_1321_13504"><path fill="#fff" d="M0 0h48v48H0z"/></clipPath></defs></svg>
